X: 33763
T: Rattlin', Roarin' Willie
R: slip jig
M: 9/8
K: Dmixolydian
d|B2 G GAG Bde|=f2 c AFA c2 d|B3 GGA GBd|gfg B2 c d2||
e/f/|gfg dBG Bde|=f2 c AFA c2 e|dBd e2 d egd|BGB AFA G2||

